X:1
T: The Marchioness of Huntly's Strathspey
C:
R:Strathspey
Q: 128
K:C
M:4/4
L:1/16
|:E2|C3E G3A c3B A3G|A3G Ac3 d3c d3e|c3e A3c G3c E3c|GFED C3E D3C D3E|
C3E G3A c3B A3G|A3G Ac3 d3c d3e|c3e A3c G3c E3a|gfed c3e d3c d3e|
g3a g3e d3e c3G|c3G A3E c3E D3E|g3a g3e c3d e3a|g3e d3g ec3 c2ef|
g3a ge3 d3e c3G|c3G A3E c3E D3E|C3E D3F E3G F3A|G3c d3g ec3 c2:|
